X: 40144
T: Tighe's Rare
R: reel
M: 4/4
K: Dmajor
B2BA Bdd2|D2FD ADFA|BcBA BdeB|1 dBAB FEFA:|2 dBAB FEE2||
Beed egfe|dedA Bdd2|Beed egfe|dBAB FEE2|
Beed egfe|dedA Bdd2|Beed faef|dBAB FEFA||

